X:1258
T:"The Miller's Maid"  (reel)     1258
C:after  Mr. Delaney
N:I feel that the typesetters missed a "D.C." command at the end.
N:Rewritten to allow proper playout.
B:O'Neill's Music Of Ireland (The 1850) Lyon & Healy, Chicago, 1903 edition
Z:FROM O'NEILL'S TO NOTEWORTHY, FROM NOTEWORTHY TO ABC, MIDI AND .TXT BY VINCE
BRENNAN July 2003 (HTTP://WWW.SOSYOURMOM.COM)
I:abc2nwc
M:C|
L:1/8
K:D
B|A2(FA) BcdB|A2(FA) BEEB|A2(FA) Beec|dABG FD D B|
A2(FA) BcdB|A2(FA) BEEB|A2(FA) Beec|dABG FD D "^Fine"||
c|dAFA dfaf|gfed cdec|dAFA BABc|dABG FDDc|
dAFA dfaf|gfed cd e2|defg abaf|gbag fd  "^D.C. al Fine"d|]
